Numix/16/status/clementine-25-playing.svg

<?xml version="1.0" encoding="UTF-8" standalone="no"?>
<svg
   xmlns:dc="http://purl.org/dc/elements/1.1/"
   xmlns:cc="http://creativecommons.org/ns#"
   xmlns:rdf="http://www.w3.org/1999/02/22-rdf-syntax-ns#"
   xmlns:svg="http://www.w3.org/2000/svg"
   xmlns="http://www.w3.org/2000/svg"
   xmlns:sodipodi="http://sodipodi.sourceforge.net/DTD/sodipodi-0.dtd"
   xmlns:inkscape="http://www.inkscape.org/namespaces/inkscape"
   version="1.2"
   width="16"
   height="16"
   id="svg2"
   inkscape:version="0.91 r"
   sodipodi:docname="clementine-25-playing.svg">
  <metadata
     id="metadata41">
    <rdf:RDF>
      <cc:Work
         rdf:about="">
        <dc:format>image/svg+xml</dc:format>
        <dc:type
           rdf:resource="http://purl.org/dc/dcmitype/StillImage" />
        <dc:title>Clementine Music Player Logo</dc:title>
      </cc:Work>
    </rdf:RDF>
  </metadata>
  <sodipodi:namedview
     pagecolor="#ffffff"
     bordercolor="#666666"
     borderopacity="1"
     objecttolerance="10"
     gridtolerance="10"
     guidetolerance="10"
     inkscape:pageopacity="0"
     inkscape:pageshadow="2"
     inkscape:window-width="1920"
     inkscape:window-height="1056"
     id="namedview39"
     showgrid="true"
     inkscape:zoom="16"
     inkscape:cx="-8.4972797"
     inkscape:cy="7.2504132"
     inkscape:window-x="0"
     inkscape:window-y="24"
     inkscape:window-maximized="1"
     inkscape:current-layer="svg2">
    <inkscape:grid
       type="xygrid"
       id="grid4135" />
  </sodipodi:namedview>
  <title
     id="title4">Clementine Music Player Logo</title>
  <defs
     id="defs6" />
  <path
     style="opacity:0.4;fill:#ececec;fill-opacity:1"
     inkscape:connector-curvature="0"
     id="path20"
     d="m 4.2078711,2.842122 c -0.02441,0.0016 -0.051149,0.00452 -0.075196,0.00834 -0.022833,0.00366 -0.044369,0.010981 -0.06684,0.016699 -0.00268,8e-4 -0.00569,-8e-4 -0.00834,0 -0.025079,0.00668 -0.050975,0.015843 -0.075196,0.025034 C 3.5023413,3.0525112 2.8028485,3.666302 2.5702885,4.1946489 2.4704233,4.4116051 2.3851934,4.6528633 2.311281,4.9460675 2.1742523,5.4887054 2.1364686,6.2138344 2.24444,7.066738 2.332616,7.7867185 2.5348867,8.6272709 2.9295566,9.5297219 3.1746239,10.182346 3.663852,10.985475 4.5755077,11.783978 c 0.1070653,0.07932 0.2109945,0.154766 0.317493,0.225425 0.8564132,0.568152 1.6237305,0.820103 2.2224516,0.918401 0.9816946,0.219029 1.8633142,0.262712 2.6151415,0.217076 0.8936212,-0.05111 1.6375392,-0.223107 2.1723202,-0.467549 0.225098,-0.122186 0.523028,-0.304364 0.685117,-0.450852 0.477509,-0.431542 0.85503,-0.807479 1.061095,-1.135477 0.0083,-0.01149 0.01738,-0.0218 0.02505,-0.03339 0.02297,-0.03849 0.04073,-0.07133 0.05848,-0.108538 0.0087,-0.01748 0.01764,-0.03238 0.02505,-0.05009 0.01305,-0.03127 0.02444,-0.06147 0.03342,-0.09184 0.0024,-0.01814 0.0063,-0.01919 0.0083,-0.0334 0.0027,-0.01058 0.0063,-0.02292 0.0083,-0.03339 0.0037,-0.02361 0.0063,-0.06454 0.0083,-0.07514 0.004,-0.01985 -1.95e-4,-0.01662 0,-0.0167 -1.82e-4,-1.21e-4 0.0011,-0.0048 0,-0.02503 -0.0013,-0.02065 -2.19e-4,-0.05673 0,-0.133585 -0.0064,-0.05135 -0.01807,-0.107473 -0.03342,-0.158633 -0.03066,-0.101125 -0.0771,-0.200414 -0.141899,-0.300569 C 13.514678,9.8358872 13.329125,9.6438693 13.089272,9.4545997 12.644512,9.1037106 12.020956,8.7645718 11.292929,8.4360101 10.673002,8.1556834 9.9915078,7.8998673 9.3294858,7.6177981 8.8671726,7.3925826 8.5022359,7.2742151 8.3686484,7.1669405 8.3520452,7.1536085 8.3445618,7.1385239 8.3352311,7.1251948 8.2141603,7.1015237 8.0211839,6.774688 7.6835316,6.3654273 7.2937811,5.8384297 6.9218074,5.2809318 6.5472403,4.7707499 6.1095411,4.1730347 5.6866162,3.6687466 5.2856231,3.3263562 5.0691396,3.1415432 4.8602465,3.0061276 4.658992,2.9255996 4.5554398,2.8841587 4.4568472,2.852392 4.358209,2.8421086 c -0.049967,-0.00532 -0.1018383,-0.00324 -0.1503914,0 z" />
  <text
     style="font-size:2.94001746px;font-family:'Bitstream Vera Sans'"
     id="text37"
     font-size="8"
     transform="scale(1.0003583,0.99964181)"
     y="10.623725"
     x="20.678432" />
  <path
     style="fill:#ececec;fill-opacity:1"
     d="M 11.545229,8.5624858 8.4089534,13.124857 c 0.4742049,0.04038 0.9170904,0.0444 1.3209854,0.01988 0.8936222,-0.05111 1.6384542,-0.222874 2.1732352,-0.467316 0.225099,-0.122186 0.522551,-0.303784 0.68464,-0.450272 0.477509,-0.431543 0.854985,-0.808334 1.061049,-1.136332 0.0083,-0.01149 0.0179,-0.02107 0.02557,-0.03267 0.02297,-0.03849 0.04048,-0.07217 0.05824,-0.109371 0.0087,-0.01748 0.01816,-0.03201 0.02557,-0.04972 0.01305,-0.03127 0.02369,-0.06196 0.03267,-0.09233 0.0024,-0.01814 0.0064,-0.01846 0.0085,-0.03267 0.0027,-0.01058 0.0064,-0.02361 0.0085,-0.03409 0.0037,-0.02361 0.0064,-0.06467 0.0085,-0.07528 0.004,-0.01985 -1.94e-4,-0.01554 0,-0.01562 -1.81e-4,-1.21e-4 0.0011,-0.0053 0,-0.02557 -0.0013,-0.02065 -2.18e-4,-0.05666 0,-0.133519 -0.0063,-0.05135 -0.01867,-0.107925 -0.03402,-0.159085 -0.0308,-0.101124 -0.07724,-0.199553 -0.142042,-0.299707 C 13.514311,9.8363941 13.329074,9.6437755 13.08922,9.4545059 12.700464,9.1478003 12.157556,8.8520195 11.545229,8.5624858 Z"
     id="path4144"
     inkscape:connector-curvature="0" />
</svg>

<svg xmlns="http://www.w3.org/2000/svg" viewBox="0 0 16 16">
 <path d="m 4.208 2.842 c -0.024 0.002 -0.051 0.005 -0.075 0.008 -0.023 0.004 -0.044 0.011 -0.067 0.017 -0.003 0.001 -0.006 -0.001 -0.008 0 -0.025 0.007 -0.051 0.016 -0.075 0.025 c -0.48 0.16 -1.179 0.774 -1.412 1.302 -0.1 0.217 -0.185 0.458 -0.259 0.751 -0.137 0.543 -0.175 1.268 -0.067 2.121 0.088 0.72 0.29 1.561 0.685 2.463 0.245 0.653 0.734 1.456 1.646 2.254 c 0.107 0.079 0.211 0.155 0.317 0.225 0.856 0.568 1.624 0.82 2.222 0.918 0.982 0.219 1.863 0.263 2.615 0.217 0.894 -0.051 1.638 -0.223 2.172 -0.468 0.225 -0.122 0.523 -0.304 0.685 -0.451 0.478 -0.432 0.855 -0.807 1.061 -1.135 0.008 -0.011 0.017 -0.022 0.025 -0.033 0.023 -0.038 0.041 -0.071 0.058 -0.109 0.009 -0.017 0.018 -0.032 0.025 -0.05 0.013 -0.031 0.024 -0.061 0.033 -0.092 0.002 -0.018 0.006 -0.019 0.008 -0.033 0.003 -0.011 0.006 -0.023 0.008 -0.033 0.004 -0.024 0.006 -0.065 0.008 -0.075 0.004 -0.02 0 -0.017 0 -0.017 0 0 0.001 -0.005 0 -0.025 -0.001 -0.021 0 -0.057 0 -0.134 -0.006 -0.051 -0.018 -0.107 -0.033 -0.159 -0.031 -0.101 -0.077 -0.2 -0.142 -0.301 c -0.126 -0.195 -0.312 -0.387 -0.551 -0.576 -0.445 -0.351 -1.068 -0.69 -1.796 -1.019 -0.62 -0.28 -1.301 -0.536 -1.963 -0.818 -0.462 -0.225 -0.827 -0.344 -0.961 -0.451 -0.017 -0.013 -0.024 -0.028 -0.033 -0.042 -0.121 -0.024 -0.314 -0.351 -0.652 -0.76 -0.39 -0.527 -0.762 -1.084 -1.136 -1.595 -0.438 -0.598 -0.861 -1.102 -1.262 -1.444 -0.216 -0.185 -0.425 -0.32 -0.627 -0.401 -0.104 -0.041 -0.202 -0.073 -0.301 -0.083 c -0.05 -0.005 -0.102 -0.003 -0.15 0 z" style="fill:#ececec;opacity:0.4;fill-opacity:1"/>
 <text transform="scale(1.0003583,0.99964181)" y="10.624" x="20.678" style="font-size:2.94;font-family:&apos;Bitstream Vera Sans&apos;"/>
 <path d="m 11.545 8.562 -3.136 4.562 c 0.474 0.04 0.917 0.044 1.321 0.02 0.894 -0.051 1.638 -0.223 2.173 -0.467 0.225 -0.122 0.523 -0.304 0.685 -0.45 0.478 -0.432 0.855 -0.808 1.061 -1.136 0.008 -0.011 0.018 -0.021 0.026 -0.033 0.023 -0.038 0.04 -0.072 0.058 -0.109 0.009 -0.017 0.018 -0.032 0.026 -0.05 0.013 -0.031 0.024 -0.062 0.033 -0.092 0.002 -0.018 0.006 -0.018 0.008 -0.033 0.003 -0.011 0.006 -0.024 0.008 -0.034 0.004 -0.024 0.006 -0.065 0.008 -0.075 0.004 -0.02 0 -0.016 0 -0.016 0 0 0.001 -0.005 0 -0.026 -0.001 -0.021 0 -0.057 0 -0.134 -0.006 -0.051 -0.019 -0.108 -0.034 -0.159 -0.031 -0.101 -0.077 -0.2 -0.142 -0.3 c -0.126 -0.195 -0.311 -0.387 -0.551 -0.577 -0.389 -0.307 -0.932 -0.602 -1.544 -0.892" style="fill:#ececec;fill-opacity:1"/>
</svg>
